client/src/imgs/waves2.svg

<svg width="960" height="250" xmlns="http://www.w3.org/2000/svg"><path fill="#fff" d="M0 0h960v250H0z"/><path d="m0 196 10 2.5c10 2.5 30 7.5 50 3.8 20-3.6 40-16 60-27.3s40-21.7 60-18.5c20 3.2 40 19.8 60 26.5 20 6.7 40 3.3 60-.5s40-8.2 60-9.5c20-1.3 40 .3 60-6.3 20-6.7 40-21.7 60-24.9 20-3.1 40 5.5 60 12.5s40 12.4 60 17.2c20 4.8 40 9.2 60 3.3 20-5.8 40-21.8 60-30.6 20-8.9 40-10.5 60 .5s40 34.6 60 35.1 40-22.1 60-21.8c20 .3 40 23.7 50 35.3l10 11.7V0H0Z" fill="#ff79fd"/><path d="m0 154 10-1.8c10-1.9 30-5.5 50-8.9 20-3.3 40-6.3 60-12 20-5.6 40-14 60-8.6 20 5.3 40 24.3 60 33.1 20 8.9 40 7.5 60 .4 20-7.2 40-20.2 60-19.5 20 .6 40 15 60 19.3 20 4.3 40-1.3 60-2s40 3.7 60 2.2 40-8.9 60-16.9c20-8 40-16.6 60-18.8 20-2.2 40 2.2 60 13.3 20 11.2 40 29.2 60 36.5 20 7.4 40 4 60 2.2 20-1.8 40-2.2 60-1 20 1.2 40 3.8 50 5.2l10 1.3V0H0Z" fill="#ef74fe"/><path d="m0 97 10 1.8c10 1.9 30 5.5 50 4.7 20-.8 40-6.2 60 0s40 23.8 60 32.8c20 9 40 9.4 60 3.9s40-16.9 60-23.4 40-8.1 60-6.5c20 1.7 40 6.7 60 13 20 6.4 40 14 60 16.2 20 2.2 40-1.2 60-2.2 20-1 40 .4 60-.1s40-2.9 60-6.9 40-9.6 60-13.8c20-4.2 40-6.8 60-10.3 20-3.5 40-7.9 60-3.4s40 17.9 60 20.5c20 2.7 40-5.3 50-9.3l10-4V0H0Z" fill="#de6ffe"/><path d="m0 92 10 .7c10 .6 30 2 50-1.7s40-12.3 60-15.8 40-1.9 60 1.3 40 7.8 60 8.8c20 1 40-1.6 60 4.7 20 6.3 40 21.7 60 29.7s40 8.6 60 5c20-3.7 40-11.7 60-21.4 20-9.6 40-21 60-21.3 20-.3 40 10.3 60 17.8s40 11.9 60 12.9 40-1.4 60-.7 40 4.3 60-1.7 40-21.6 60-27.5c20-5.8 40-1.8 60 5.7s40 18.5 50 24l10 5.5V0H0Z" fill="#cb6bff"/><path d="m0 83 10-1.8c10-1.9 30-5.5 50-2.9C80 81 100 90 120 93s40 0 60 .7c20 .6 40 5 60-.9C260 87 280 71 300 63s40-8 60-4.2c20 3.9 40 11.5 60 19.2 20 7.7 40 15.3 60 12 20-3.3 40-17.7 60-24.5 20-6.8 40-6.2 60-7.2s40-3.6 60 1.7 40 18.7 60 25.2 40 6.1 60 1.1 40-14.6 60-17.3c20-2.7 40 1.7 60 3.3 20 1.7 40 .7 50 .2l10-.5V0H0Z" fill="#b767ff"/><path d="m0 68 10-4.7c10-4.6 30-14 50-14.1 20-.2 40 8.8 60 8.3s40-10.5 60-10.7c20-.1 40 9.5 60 14.7 20 5.2 40 5.8 60 7 20 1.2 40 2.8 60 3.3s40-.1 60-4c20-3.8 40-10.8 60-15 20-4.1 40-5.5 60-8.1 20-2.7 40-6.7 60-7.2s40 2.5 60 7.7c20 5.1 40 12.5 60 17s40 6.1 60 5.6 40-3.1 60-2.5c20 .7 40 4.7 60-.1 20-4.9 40-18.5 50-25.4l10-6.8V0H0Z" fill="#a164ff"/><path d="m0 20 10 1.7c10 1.6 30 5 50 4.8 20-.2 40-3.8 60-2.8s40 6.6 60 5.6 40-8.6 60-9.8c20-1.2 40 4.2 60 4.7s40-3.9 60-4.9c20-1 40 1.4 60 1.2 20-.2 40-2.8 60 1.2s40 14.6 60 19.1c20 4.5 40 2.9 60 2.7 20-.2 40 1.2 60-3.7 20-4.8 40-15.8 60-17.3s40 6.5 60 9.2c20 2.6 40 0 60 .6 20 .7 40 4.7 60 7.2s40 3.5 50 4l10 .5V0H0Z" fill="#8961ff"/></svg>

<svg id="visual" viewBox="0 0 960 250" width="960" height="250" xmlns="http://www.w3.org/2000/svg" xmlns:xlink="http://www.w3.org/1999/xlink" version="1.1"><rect x="0" y="0" width="960" height="250" fill="#fff"></rect><path d="M0 196L10 198.5C20 201 40 206 60 202.3C80 198.7 100 186.3 120 175C140 163.7 160 153.3 180 156.5C200 159.7 220 176.3 240 183C260 189.7 280 186.3 300 182.5C320 178.7 340 174.3 360 173C380 171.7 400 173.3 420 166.7C440 160 460 145 480 141.8C500 138.7 520 147.3 540 154.3C560 161.3 580 166.7 600 171.5C620 176.3 640 180.7 660 174.8C680 169 700 153 720 144.2C740 135.3 760 133.7 780 144.7C800 155.7 820 179.3 840 179.8C860 180.3 880 157.7 900 158C920 158.3 940 181.7 950 193.3L960 205L960 0L950 0C940 0 920 0 900 0C880 0 860 0 840 0C820 0 800 0 780 0C760 0 740 0 720 0C700 0 680 0 660 0C640 0 620 0 600 0C580 0 560 0 540 0C520 0 500 0 480 0C460 0 440 0 420 0C400 0 380 0 360 0C340 0 320 0 300 0C280 0 260 0 240 0C220 0 200 0 180 0C160 0 140 0 120 0C100 0 80 0 60 0C40 0 20 0 10 0L0 0Z" fill="#ff79fd"></path><path d="M0 154L10 152.2C20 150.3 40 146.7 60 143.3C80 140 100 137 120 131.3C140 125.7 160 117.3 180 122.7C200 128 220 147 240 155.8C260 164.7 280 163.3 300 156.2C320 149 340 136 360 136.7C380 137.3 400 151.7 420 156C440 160.3 460 154.7 480 154C500 153.3 520 157.7 540 156.2C560 154.7 580 147.3 600 139.3C620 131.3 640 122.7 660 120.5C680 118.3 700 122.7 720 133.8C740 145 760 163 780 170.3C800 177.7 820 174.3 840 172.5C860 170.7 880 170.3 900 171.5C920 172.7 940 175.3 950 176.7L960 178L960 0L950 0C940 0 920 0 900 0C880 0 860 0 840 0C820 0 800 0 780 0C760 0 740 0 720 0C700 0 680 0 660 0C640 0 620 0 600 0C580 0 560 0 540 0C520 0 500 0 480 0C460 0 440 0 420 0C400 0 380 0 360 0C340 0 320 0 300 0C280 0 260 0 240 0C220 0 200 0 180 0C160 0 140 0 120 0C100 0 80 0 60 0C40 0 20 0 10 0L0 0Z" fill="#ef74fe"></path><path d="M0 97L10 98.8C20 100.7 40 104.3 60 103.5C80 102.7 100 97.3 120 103.5C140 109.7 160 127.3 180 136.3C200 145.3 220 145.7 240 140.2C260 134.7 280 123.3 300 116.8C320 110.3 340 108.7 360 110.3C380 112 400 117 420 123.3C440 129.7 460 137.3 480 139.5C500 141.7 520 138.3 540 137.3C560 136.3 580 137.7 600 137.2C620 136.7 640 134.3 660 130.3C680 126.3 700 120.7 720 116.5C740 112.3 760 109.7 780 106.2C800 102.7 820 98.3 840 102.8C860 107.3 880 120.7 900 123.3C920 126 940 118 950 114L960 110L960 0L950 0C940 0 920 0 900 0C880 0 860 0 840 0C820 0 800 0 780 0C760 0 740 0 720 0C700 0 680 0 660 0C640 0 620 0 600 0C580 0 560 0 540 0C520 0 500 0 480 0C460 0 440 0 420 0C400 0 380 0 360 0C340 0 320 0 300 0C280 0 260 0 240 0C220 0 200 0 180 0C160 0 140 0 120 0C100 0 80 0 60 0C40 0 20 0 10 0L0 0Z" fill="#de6ffe"></path><path d="M0 92L10 92.7C20 93.3 40 94.7 60 91C80 87.3 100 78.7 120 75.2C140 71.7 160 73.3 180 76.5C200 79.7 220 84.3 240 85.3C260 86.3 280 83.7 300 90C320 96.3 340 111.7 360 119.7C380 127.7 400 128.3 420 124.7C440 121 460 113 480 103.3C500 93.7 520 82.3 540 82C560 81.7 580 92.3 600 99.8C620 107.3 640 111.7 660 112.7C680 113.7 700 111.3 720 112C740 112.7 760 116.3 780 110.3C800 104.3 820 88.7 840 82.8C860 77 880 81 900 88.5C920 96 940 107 950 112.5L960 118L960 0L950 0C940 0 920 0 900 0C880 0 860 0 840 0C820 0 800 0 780 0C760 0 740 0 720 0C700 0 680 0 660 0C640 0 620 0 600 0C580 0 560 0 540 0C520 0 500 0 480 0C460 0 440 0 420 0C400 0 380 0 360 0C340 0 320 0 300 0C280 0 260 0 240 0C220 0 200 0 180 0C160 0 140 0 120 0C100 0 80 0 60 0C40 0 20 0 10 0L0 0Z" fill="#cb6bff"></path><path d="M0 83L10 81.2C20 79.3 40 75.7 60 78.3C80 81 100 90 120 93C140 96 160 93 180 93.7C200 94.3 220 98.7 240 92.8C260 87 280 71 300 63C320 55 340 55 360 58.8C380 62.7 400 70.3 420 78C440 85.7 460 93.3 480 90C500 86.7 520 72.3 540 65.5C560 58.7 580 59.3 600 58.3C620 57.3 640 54.7 660 60C680 65.3 700 78.7 720 85.2C740 91.7 760 91.3 780 86.3C800 81.3 820 71.7 840 69C860 66.3 880 70.7 900 72.3C920 74 940 73 950 72.5L960 72L960 0L950 0C940 0 920 0 900 0C880 0 860 0 840 0C820 0 800 0 780 0C760 0 740 0 720 0C700 0 680 0 660 0C640 0 620 0 600 0C580 0 560 0 540 0C520 0 500 0 480 0C460 0 440 0 420 0C400 0 380 0 360 0C340 0 320 0 300 0C280 0 260 0 240 0C220 0 200 0 180 0C160 0 140 0 120 0C100 0 80 0 60 0C40 0 20 0 10 0L0 0Z" fill="#b767ff"></path><path d="M0 68L10 63.3C20 58.7 40 49.3 60 49.2C80 49 100 58 120 57.5C140 57 160 47 180 46.8C200 46.7 220 56.3 240 61.5C260 66.7 280 67.3 300 68.5C320 69.7 340 71.3 360 71.8C380 72.3 400 71.7 420 67.8C440 64 460 57 480 52.8C500 48.7 520 47.3 540 44.7C560 42 580 38 600 37.5C620 37 640 40 660 45.2C680 50.3 700 57.7 720 62.2C740 66.7 760 68.3 780 67.8C800 67.3 820 64.7 840 65.3C860 66 880 70 900 65.2C920 60.3 940 46.7 950 39.8L960 33L960 0L950 0C940 0 920 0 900 0C880 0 860 0 840 0C820 0 800 0 780 0C760 0 740 0 720 0C700 0 680 0 660 0C640 0 620 0 600 0C580 0 560 0 540 0C520 0 500 0 480 0C460 0 440 0 420 0C400 0 380 0 360 0C340 0 320 0 300 0C280 0 260 0 240 0C220 0 200 0 180 0C160 0 140 0 120 0C100 0 80 0 60 0C40 0 20 0 10 0L0 0Z" fill="#a164ff"></path><path d="M0 20L10 21.7C20 23.3 40 26.7 60 26.5C80 26.3 100 22.7 120 23.7C140 24.7 160 30.3 180 29.3C200 28.3 220 20.7 240 19.5C260 18.3 280 23.7 300 24.2C320 24.7 340 20.3 360 19.3C380 18.3 400 20.7 420 20.5C440 20.3 460 17.7 480 21.7C500 25.7 520 36.3 540 40.8C560 45.3 580 43.7 600 43.5C620 43.3 640 44.7 660 39.8C680 35 700 24 720 22.5C740 21 760 29 780 31.7C800 34.3 820 31.7 840 32.3C860 33 880 37 900 39.5C920 42 940 43 950 43.5L960 44L960 0L950 0C940 0 920 0 900 0C880 0 860 0 840 0C820 0 800 0 780 0C760 0 740 0 720 0C700 0 680 0 660 0C640 0 620 0 600 0C580 0 560 0 540 0C520 0 500 0 480 0C460 0 440 0 420 0C400 0 380 0 360 0C340 0 320 0 300 0C280 0 260 0 240 0C220 0 200 0 180 0C160 0 140 0 120 0C100 0 80 0 60 0C40 0 20 0 10 0L0 0Z" fill="#8961ff"></path></svg>
